flaticon/technology/smartwatch-1.svg

<svg xmlns="http://www.w3.org/2000/svg" width="32" height="32" viewBox="0 0 24 24">
    <path d="M 18.441406 5.589844 L 16.800781 3.082031 L 16.800781 0 L 7.199219 0 L 7.199219 3.082031 L 5.582031 5.550781 L 5.558594 5.589844 C 5.324219 6.058594 5.199219 6.582031 5.199219 7.105469 L 5.199219 16.894531 C 5.199219 17.417969 5.324219 17.941406 5.558594 18.410156 L 7.199219 20.917969 L 7.199219 24 L 16.800781 24 L 16.800781 20.917969 L 18.417969 18.449219 L 18.441406 18.410156 C 18.675781 17.941406 18.800781 17.417969 18.800781 16.894531 L 18.800781 7.105469 C 18.800781 6.582031 18.675781 6.058594 18.441406 5.589844 Z M 8 0.800781 L 16 0.800781 L 16 2.800781 L 8 2.800781 Z M 16 23.199219 L 8 23.199219 L 8 21.199219 L 16 21.199219 Z M 18 16.894531 C 18 17.289062 17.910156 17.679688 17.738281 18.03125 L 16.183594 20.398438 L 7.816406 20.398438 L 6.261719 18.03125 C 6.089844 17.679688 6 17.289062 6 16.894531 L 6 7.105469 C 6 6.710938 6.089844 6.320312 6.261719 5.96875 L 7.816406 3.601562 L 16.183594 3.601562 L 17.738281 5.96875 C 17.910156 6.320312 18 6.710938 18 7.105469 Z M 18 16.894531"/>
    <path d="M15.832031 6L8.167969 6C7.414062 6 6.800781 6.613281 6.800781 7.367188L6.800781 15.832031C6.800781 16.585938 7.414062 17.199219 8.167969 17.199219L15.832031 17.199219C16.585938 17.199219 17.199219 16.585938 17.199219 15.832031L17.199219 7.367188C17.199219 6.613281 16.585938 6 15.832031 6zM16.398438 15.832031C16.398438 16.144531 16.144531 16.398438 15.832031 16.398438L8.167969 16.398438C7.855469 16.398438 7.601562 16.144531 7.601562 15.832031L7.601562 7.367188C7.601562 7.054688 7.855469 6.800781 8.167969 6.800781L15.832031 6.800781C16.144531 6.800781 16.398438 7.054688 16.398438 7.367188zM12.582031 17.601562L11.417969 17.601562C11.078125 17.601562 10.800781 17.878906 10.800781 18.21875L10.800781 19.382812C10.800781 19.722656 11.078125 20 11.417969 20L12.582031 20C12.921875 20 13.199219 19.722656 13.199219 19.382812L13.199219 18.21875C13.199219 17.878906 12.921875 17.601562 12.582031 17.601562zM12.398438 19.199219L11.601562 19.199219 11.601562 18.398438 12.398438 18.398438zM12.398438 19.199219"/>
    <path d="M8.800781 10C8.902344 10 9.003906 9.960938 9.082031 9.882812L10.683594 8.28125C10.839844 8.125 10.839844 7.875 10.683594 7.71875 10.527344 7.5625 10.273438 7.5625 10.117188 7.71875L8.515625 9.316406C8.359375 9.472656 8.359375 9.726562 8.515625 9.882812 8.59375 9.960938 8.699219 10 8.800781 10zM8.800781 12C8.902344 12 9.003906 11.960938 9.082031 11.882812L9.882812 11.082031C10.039062 10.925781 10.039062 10.671875 9.882812 10.515625 9.726562 10.359375 9.472656 10.359375 9.316406 10.515625L8.515625 11.316406C8.359375 11.472656 8.359375 11.726562 8.515625 11.882812 8.59375 11.960938 8.699219 12 8.800781 12zM10.117188 9.714844C10.042969 9.792969 10 9.890625 10 10 10 10.109375 10.039062 10.207031 10.117188 10.285156 10.191406 10.359375 10.296875 10.398438 10.398438 10.398438 10.503906 10.398438 10.609375 10.359375 10.683594 10.285156 10.757812 10.207031 10.800781 10.105469 10.800781 10 10.800781 9.894531 10.757812 9.792969 10.683594 9.714844 10.53125 9.566406 10.273438 9.5625 10.117188 9.714844zM10.917969 9.484375C10.996094 9.5625 11.097656 9.601562 11.199219 9.601562 11.300781 9.601562 11.40625 9.5625 11.484375 9.484375L12.683594 8.28125C12.839844 8.125 12.839844 7.875 12.683594 7.71875 12.527344 7.5625 12.273438 7.5625 12.117188 7.71875L10.917969 8.917969C10.761719 9.074219 10.761719 9.328125 10.917969 9.484375zM12.117188 9.71875L8.515625 13.316406C8.359375 13.472656 8.359375 13.726562 8.515625 13.882812 8.59375 13.960938 8.699219 14 8.800781 14 8.902344 14 9.003906 13.960938 9.082031 13.882812L12.683594 10.28125C12.839844 10.125 12.839844 9.875 12.683594 9.71875 12.527344 9.5625 12.273438 9.5625 12.117188 9.71875zM12.914062 8.914062C12.84375 8.992188 12.800781 9.097656 12.800781 9.199219 12.800781 9.304688 12.84375 9.40625 12.914062 9.484375 12.992188 9.554688 13.097656 9.601562 13.199219 9.601562 13.304688 9.601562 13.40625 9.554688 13.484375 9.484375 13.554688 9.40625 13.601562 9.304688 13.601562 9.199219 13.601562 9.097656 13.554688 8.992188 13.484375 8.921875 13.335938 8.769531 13.0625 8.769531 12.914062 8.914062zM14.117188 7.71875L13.71875 8.117188C13.5625 8.273438 13.5625 8.527344 13.71875 8.683594 13.796875 8.761719 13.898438 8.800781 14 8.800781 14.101562 8.800781 14.203125 8.761719 14.28125 8.683594L14.683594 8.28125C14.839844 8.125 14.839844 7.875 14.683594 7.71875 14.527344 7.5625 14.273438 7.5625 14.117188 7.71875zM14.117188 7.71875"/>
</svg>

<svg xmlns="http://www.w3.org/2000/svg" width="32" height="32" viewBox="0 0 24 24">
    <path d="M18.441 5.59l-1.64-2.508V0H7.199v3.082L5.582 5.551l-.023.039c-.235.469-.36.992-.36 1.515v9.79c0 .523.125 1.046.36 1.515l1.64 2.508V24h9.602v-3.082l1.617-2.469.023-.039c.235-.469.36-.992.36-1.515v-9.79c0-.523-.125-1.046-.36-1.515zM8 .8h8v2H8zm8 22.4H8v-2h8zm2-6.305c0 .394-.09.785-.262 1.136l-1.554 2.367H7.816l-1.554-2.367A2.594 2.594 0 0 1 6 16.895v-9.79c0-.394.09-.785.262-1.136l1.554-2.367h8.368l1.554 2.367c.172.351.262.742.262 1.136zm0 0"/>
    <path d="M15.832 6H8.168c-.754 0-1.367.613-1.367 1.367v8.465c0 .754.613 1.367 1.367 1.367h7.664c.754 0 1.367-.613 1.367-1.367V7.367C17.2 6.613 16.586 6 15.832 6zm.566 9.832a.567.567 0 0 1-.566.566H8.168a.567.567 0 0 1-.566-.566V7.367c0-.312.253-.566.566-.566h7.664c.313 0 .566.254.566.566zm0 0M12.582 17.602h-1.164a.618.618 0 0 0-.617.617v1.164c0 .34.277.617.617.617h1.164c.34 0 .617-.277.617-.617v-1.164a.618.618 0 0 0-.617-.617zm-.184 1.597h-.796v-.8h.796zm0 0"/>
    <path d="M8.8 10c.102 0 .204-.04.282-.117l1.602-1.602a.396.396 0 0 0 0-.562.4.4 0 0 0-.567 0L8.516 9.316A.4.4 0 0 0 8.8 10zm0 0M8.8 12c.102 0 .204-.04.282-.117l.8-.801a.4.4 0 0 0-.566-.566l-.8.8A.4.4 0 0 0 8.8 12zm0 0M10.117 9.715a.409.409 0 0 0 0 .57c.074.074.18.113.281.113.106 0 .211-.039.286-.113A.416.416 0 0 0 10.8 10a.416.416 0 0 0-.117-.285.412.412 0 0 0-.567 0zm0 0M10.918 9.484c.078.079.18.118.281.118.102 0 .207-.04.285-.118l1.2-1.203a.396.396 0 0 0 0-.562.4.4 0 0 0-.567 0l-1.199 1.199a.4.4 0 0 0 0 .566zm0 0M12.117 9.719l-3.601 3.597a.4.4 0 0 0 .566.567l3.602-3.602a.396.396 0 0 0 0-.562.4.4 0 0 0-.567 0zm0 0M12.914 8.914a.438.438 0 0 0-.113.285.43.43 0 0 0 .113.285c.078.07.184.118.285.118a.434.434 0 0 0 .285-.118.434.434 0 0 0 .118-.285.407.407 0 0 0-.118-.277.421.421 0 0 0-.57-.008zm0 0M14.117 7.719l-.398.398a.4.4 0 0 0 .281.684c.102 0 .203-.04.281-.117l.403-.403a.396.396 0 0 0 0-.562.4.4 0 0 0-.567 0zm0 0"/>
</svg>
